X: 1
T: The Piper's Waltz
R: waltz, slow march
Z: 2012 John Chambers <jc:trillian.mit.edu>
M: 6/8
L: 1/8
K: D
   A | "D"f2e  d>ef | "G"B2B "(Em)"B2e/d/ |1,3 "A7"c2c c>BA | "D"f3 f2 :|2,4 "A7"c2c cac | "D"d3 d2 :|
|: A | "D"f>ga d>fa | "G"B2B  "Em" B2e/d/ |1,3 "A7"c2c c>BA | "D"f3 f2 :|2,4 "A7"c2c cac | "D"d3 d2 :|
